X:0631
T:The Caledonian Hunt.
M:C
L:1/8
Q:1/4=120
I: || ||
Z:Jack Campin * www.campin.me.uk * 2009
K:D
A| F>AdA         B<dc>A| GB````````AF  BEE>G  |.F.A.d.A      .B.d.A.F |G<BA>G F(DD>)G|
   F>AdA         B<dA>F| G<B``````TA>F B(EE>)G| F>A d>A       B/c/d AG|F>AE>g f>dd  ||
f|(d/e/f/g/) a>f b>ga>f|(d/e/f/g/) a>f g<ee>f |(d/e/f/g/) a>f b>ga>f  |A<aa>g fdd>f  |
  (d/e/f/g/) a>f b>ga>f|(d/e/f/g/) a>f gee>g  | f>de>f        d>BA>F  |A>Bd>e f>dd  |]
<end>
<start>
